src/svg/deviantart.svg

<svg height="1000" width="571.429" xmlns="http://www.w3.org/2000/svg"><path d="M571.392 169.138l-169.074 324.756 13.392 17.298h155.682v231.57h-282.906l-24.552 16.74 -79.236 152.334 -16.74 16.74h-167.958v-169.074l169.074 -325.314 -13.392 -16.74h-155.682v-231.57h282.906l24.552 -16.74 79.236 -152.334 16.74 -16.74h167.958v169.074z"/></svg>

<svg height="1000" width="571.4" xmlns="http://www.w3.org/2000/svg"><path d="M571.4 169.1L402.3 493.9l13.4 17.3h155.7v231.5H288.5L264 759.5l-79.3 152.3L168 928.6H0V759.5L169.1 434.2l-13.4 -16.8H0V185.8h282.9l24.6 -16.7L386.7 16.7 403.5 0h167.9v169.1z"/></svg>
